X:1
T:Title
%%score ( 1 2 ) ( 3 4 )
L:1/8
Q:1/4=80
M:2/4
K:Ab
V:1 treble nm="Strings 1, Treble"
V:2 treble 
V:3 bass nm="Strings 1, Bass"
V:4 bass 
V:1
 z2 z [CE] | [CE]2 [CE]>[DF] | [CE]2 [A,C][CE] | [CA]2 [CA]>[DB] | [CA]3 [EG] | [DF]2 [DF]>[DA] | %6
w: 1.~We're~|liv ing~ by~|faith~ in~ the~|Sav ior~ a|lone,~ Who~|suf fered~ on~|
 [CE]2 [EA][EA] | [EB]2 [EB]>[Ec] | [EB]3 [Ed] | [Ec]2 [Ec]>[Ed] | [Ee]2 [Ec][DB] | %11
w: Cal v'ry~ for~|sin~ to~ a|tone;~ He's~|ful ly~ re|deemed~ us~ from~|
 [CA]2 [EG]>[DF] | [CE]3 [CE] | [DF]2 [FA]>[FA] | E2 [CA][CA] | [DB]2 [CA]>[DG] | %16
w: Sa tan's~ do|main,~ By~|rais ing~ us~|up~ to~ this~|glo ri ous~|
[M:4/4] z4[Q:1/4=80] B4-[Q:1/4=12] | B2 z2 c4- | c2 z2 z4 | z8 | z4 e4- | e2 z2 F4- | F2 z2 z4 | %23
w: |||||||
 z4 A4- | A2 z2 z4 |] %25
w: ||
V:2
 x4 | x4 | x4 | x4 | x4 | x4 | x4 | x4 | x4 | x4 | x4 | x4 | x4 | x4 | x4 | x4 | %16
[M:4/4] [CA]2 G>A z2 E>E | E>E [EA]>[EB] E2 E>E | E2 [Ec]>[DB] [CA]3 [EA] | [EG]2 [CA]2 [EB]4- | %20
 [EB]2 c>d z2 E>E | E>[Ec] [DB]>[CA] D>D D>D | D2 [DA]2 [DG][DF][DE][DE] | [DF]2 [DG]2 CCDD | %24
 C2 z2 z4 |] %25
V:3
 z2 z [A,,A,] | [A,,A,]2 [A,,A,]>[A,,A,] | [A,,A,]2 [A,,E,][A,,A,] | [A,,A,]2 [A,,E,]>[A,,E,] | %4
 [A,,E,]3 [C,A,] | [D,A,]2 [D,A,]>[F,A,] | A,2 [C,A,][C,A,] | [E,G,]2 [E,G,]>[E,A,] | %8
 [E,G,]3 [G,B,] | A,2 A,>[A,B,] | [A,C]2 [A,,A,][A,,A,] | [A,,A,]2 [A,,A,]>[A,,A,] | %12
 [A,,A,]3 [A,,A,] | [D,A,]2 [D,A,]>[D,A,] | [C,A,]2 [A,,A,][A,,A,] | [E,G,]2 [E,A,]>[E,B,] | %16
[M:4/4] [A,,A,]2 z2 z2 [E,G,]>[E,G,] | [E,G,]>[D,G,] [C,A,]>[B,,G,] [A,,A,]2 [C,A,]>[E,A,] | %18
 A,2 [A,,A,]>[A,,A,] [A,,A,]3 [C,A,] | [B,,E,]2 [A,,A,]2 [E,G,]4- | [E,G,]2 z2 z2 [A,C]>[A,C] | %21
 [A,C]2 z2 z z/ [D,A,]/ [D,A,]>[D,A,] | [D,A,]2 [F,A,]2 [E,B,][E,A,][E,G,][E,G,] | %23
 [E,A,]2 [E,B,]2 A,E,F,F, | E,2 z2 z4 |] %25
V:4
 x4 | x4 | x4 | x4 | x4 | x4 | x4 | x4 | x4 | x4 | x4 | x4 | x4 | x4 | x4 | x4 |[M:4/4] x8 | x8 | %18
 x8 | x8 | x8 | x8 | x8 | z4 A,,4- | A,,2 z2 z4 |] %25

